!!!COM: Gabriel Faure/
!!!CNT: Francais
!!!TXO: Francais
!!!OTL: Notre Amour
!!!OPS: Op. 23
!!!ONM: No. 2
!!!LYR: Armand Silvestre
!!!ENC: Jacob Pegg
!!!YOR: Album of Twenty Songs (Vingt Me/lodies,) Volume II
!!!YOR: Edward B. Marks Music Corporation, RCA Building, Radio
!!!YOR: City, New York 20, N.Y.
!!!ODT: 1879/
!!NB: Vocal melody and text only encoded.
!!NB: First instance of melodic material only encoded.
**kern	**silbe
*clef G2	*
*k[f#c#g#d#]	*
*M6/8	*
*MM63	*
!! Allegretto, eighth = 126
!!created: 2/9/04 21:08
!!proofed and posted: 2/10/04 0:47
!!edit time: 33 min.
=1	=1
4r	.
2r	.
=2	=2
2r	.
4r	.
=3	=3
{16g#	{No-
16a	-tre a-
16b	-mour
16cc#	est
8dd#	cho-
16ee	-se
16dd#	le/-
8cc#	-ge-
8b	-re,
=4	=4
16g#	Com-
16a	-me
16b	les
16cc#	par-
8dd#	-fums
16ee	que
16dd#	le
8ff#	vent
16ee	Prend
16dd#	aux
=5	=5
8dd#	ci-
16cc#	-mes
16b	de
16g#	la
16a#	fou-
8b	-ge\-
8d#}	-re,}
{16e#	{Pour
16e#	qu'on
=6	=6
16f#	les
16g#	res-
(16a#	-pi-
16b)	|
16cc#	-re en
16b	re^-
4a#}	-vant.}
{16b	{No-
16cc#	-tre a-
=7	=7
16dd#	-mour
16ee	est
8ff#	cho-
16ee	-se
16dd#	le/-
4.cc#	-ge\-
=8	=8
[4.b	-re!
8b]}	|}
8r	.
8r	.
=9	=9
{16g#	{No-
16a	-tre a-
16b	-mour
16cc#	est
8dd#	cho-
16ee	-se
16dd#	char-
8cc#	-man-
8b	-te,
=10	=10
16g#	Com-
16a	-me
16b	les
16cc#	chan-
8ddn	-sons
16cc#	du
16g#	ma-
8g#}	-tin,}
16r	.
{16g#	{Ou
=11	=11
16a	nul
16g#	re-
16f#	-gret
16g#	ne
16a	se
16ddn	la-
8cc#	-men-
8g#}	-te,}
16r	.
{16cc#	{Ou\
=12	=12
16cc#	vi-
16a	-bre un
16f#	es-
16g#	-poir
16a	in-
16cc#	-cer-
4b}	-tain;}
{16a	{No-
16b	-tre a-
=13	=13
16cc#	-mour
16ddn	est
8ee	cho-
16dd#	-se
16cc#	char-
4.b	-man-
=14	=14
4.a}	-te!}
4r	.
8r	.
!!15-20 repeat of 1st phrase
=21	=21
{16e	{No-
16f#	-tre a-
16g#	-mour
16a	est
8b	cho-
16a	-se in-
16g#	-fi-
8f#	-ni-
8f#	-e,
=22	=22
16e	Com-
16f#	-me
16g#	les
16a	che-
8b	-mins
16a	des
16g#	cou-
4f#}	-chants,}
=23	=23
{16g#	{Ou\
16a	la
8b	mer,
16a	aux
16g#	cieux
16cc#	re/-
16b	-u-
8a	-ni-
8g#	e,
=24	=24
8f#	S'en-
16g#	-dort
16a	sous
16b	les
16cc#	so-
8.dd#	-leils
16ee	pen-
8b}	-chants;}
=25	=25
2r	.
4r	.
!!26-28 repeat of 21-23
=29	=29
{8a	{Com-
16b	-me
16cc#	tout
16dd#	ce
16ee	qui
8.ff#	vient
16gg#	du
[8b	coeur;
=30	=30
8b]}	|}
8r	.
{16g#	{No-
16b	-tre a-
[4.dd#	-mour,
=31	=31
4dd#]}	|}
{16b	{No-
16dd#	-tre a-
[4.ff#	-mour
=32	=32
4ff#]	|
8ff#	est
(16ggn	cho-
16ddn)	|
(16b	-se
16ccn)	e/-
(16ddn	-ter-
16ee)	|
=33	=33
(4.ff#	-nel-
4.gg#)	|
=34	=34
4cc#}	-le,}
{(16e	{est
16f#)	|
(16g#	cho-
16a)	|
(16b	-se
16cc#)	e/-
(16dd#	-ter-
16ee)	|
=35	=35
[4.aa	-nel-
(4aa]	|
8dd#)	|
=36	=36
[4.ee	-le!
8ee]}	|}
8r	.
8r	.
*-	*-
